X:1
T:J. Pachelbel Transcribed by Stephen MacLellan
T:Pachelbel's Canon in D Minor
%%score 1 2 3 4
L:1/8
Q:1/4=52
M:4/4
K:F
V:1 treble nm="Violin" snm="Vln."
V:2 treble nm="Violin" snm="Vln."
V:3 treble nm="Violin" snm="Vln."
V:4 bass nm="Violoncello" snm="Vlc."
V:1
"^Lento" z8 | z8 | f2 e2 d2 c2 | B2 A2 B2 ^c2 | d2 ^c2 B2 A2 | G2 F2 G2 E2 | DFAG FDFE | %7
 DB,DA GBAG | FDE^c dfaA | BGAF Dd d>^c | d/^c/d/D/ ^C/A/E/F/ D/d/=c/B/ A/f/a/b/ | %11
 g/f/e/g/ f/e/d/c/ B/A/G/F/ E/G/F/E/ | D/E/F/G/ A/E/A/G/ F/B/A/G/ A/G/F/E/ | %13
 D/B,/B/c/ d/c/B/A/ G/F/E/B/ A/B/A/G/ | Ff e2 z d f2 | b2 a2 b2 ^c'2 | d'd ^c2 z B d2 | d3 d dgea | %18
 a/f/4g/4a/f/4g/4 a/4A/4=B/4^c/4d/4e/4f/4g/4 f/d/4e/4f/F/4G/4 A/4_B/4A/4G/4A/4F/4G/4A/4 | %19
 G/B/4A/4G/F/4E/4 F/4E/4D/4E/4F/4G/4A/4B/4 G/B/4A/4B/^c/4d/4 A/4=B/4c/4d/4e/4f/4g/4a/4 | %20
 f/d/4e/4f/e/4d/4 e/4^c/4d/4e/4f/4e/4d/4=c/4 d/B/4c/4d/D/4E/4 F/4G/4F/4E/4F/4d/4^c/4d/4 | %21
 B/d/4c/4B/A/4G/4 A/4G/4F/4G/4A/4=B/4^c/4d/4 _B/d/4c/4d/c/4=B/4 c/4d/4e/4d/4c/4d/4B/4c/4 | %22
 d z ^c z B z d z | D z D z D z E z | z A z A z F z A | z G z F z G z e | %26
 f/F/G/F/ E/e/f/e/ d/F/D/B/ A/A,/G,/A,/ | B,/B/c/B/ A/A,/G,/A,/ B,/B/A/B/ ^c/^C/=B,/C/ | %28
 D/d/e/d/ ^c/^C/D/=C/ B,/B/A/B/ =c/C/F/E/ | D/d/e/g/ f/F/A/f/ d/g/f/g/ e/A/G/A/ | %30
 F/A/A/A/ A/A/A/A/ F/F/F/F/ F/F/A/A/ | G/G/G/d/ d/d/d/d/ d/d/B/B/ A/A/e/^c/ | %32
 A/f/f/f/ e/e/e/e/ d/d/d/d/ a/a/a/a/ | b/b/b/b/ a/a/a/a/ b/b/b/b/ ^c'/^c/c/c/ | %34
 d/D/4E/4F/D/ ^C/^c/4d/4e/c/ B/B,/4=C/4D/B,/ C/A/4G/4F/E/ | %35
 D/G/4F/4E/G/ F/D/4E/4F/A/ G/B/4A/4G/F/ E/A/4G/4F/E/ | %36
 F/d/4^c/4d/F/ A/A/4=B/4c/A/ F/d/4e/4f/d/ f/f/4e/4d/=c/ | %37
 B/B/4A/4B/^c/ d/f/4e/4d/f/ g/d/4=c/4B/B/ A/E/A/A/ | A3 A D3 A | G2 A2 GD D>^C | Dd ^c2 B2 A2 | %41
 D>E F2 B2 E>E | F>f f/g/f/e/ d>d d/_e/d/c/ | B2 d2 d/c/B/c/ A>A | A>a a/b/a/g/ f>f f/g/f/_e/ | %45
 d/c/B/c/ A>A Gd ^c>c | d d2 c2 B2 A- | A G2 F- F>E E2 | F f2 e d d'2 c' | b2 d'a b2 a2 | %50
 a2 A>G F2 f>e | d3 d d2 ^c2 | dD^C^c BB,A,A | GgfF EBEe | ffee ddcc | %55
 BBAA[Q:1/4=45]"^." G>e A[Q:1/4=25]"^Grave"A |[Q:1/4=30]"^Grave" A2 z2 z4 |] %57
V:2
 z8 | z8 | z8 | z8 | f2 e2 d2 c2 | B2 A2 B2 ^c2 | d2 ^c2 B2 A2 | G2 F2 G2 E2 | DFAG FDFE | %9
 DB,DA GBAG | FDE^c dfaA | BGAF Dd d>^c | d/^c/d/D/ ^C/A/E/F/ D/d/=c/B/ A/f/a/b/ | %13
 g/f/e/g/ f/e/d/c/ B/A/G/F/ E/G/F/E/ | D/E/F/G/ A/E/A/G/ F/B/A/G/ A/G/F/E/ | %15
 D/B,/B/c/ d/c/B/A/ G/F/E/B/ A/B/A/G/ | Ff e2 z d f2 | b2 a2 b2 ^c'2 | d'd ^c2 z B d2 | d3 d dgea | %20
 a/f/4g/4a/f/4g/4 a/4A/4=B/4^c/4d/4e/4f/4g/4 f/d/4e/4f/F/4G/4 A/4_B/4A/4G/4A/4F/4G/4A/4 | %21
 G/B/4A/4G/F/4E/4 F/4E/4D/4E/4F/4G/4A/4B/4 G/B/4A/4B/^c/4d/4 A/4=B/4c/4d/4e/4f/4g/4a/4 | %22
 f/d/4e/4f/e/4d/4 e/4^c/4d/4e/4f/4e/4d/4=c/4 d/B/4c/4d/D/4E/4 F/4G/4F/4E/4F/4d/4^c/4d/4 | %23
 B/d/4c/4B/A/4G/4 A/4G/4F/4G/4A/4=B/4^c/4d/4 _B/d/4c/4d/c/4=B/4 c/4d/4e/4d/4c/4d/4B/4c/4 | %24
 d z ^c z B z d z | D z D z D z E z | z A z A z F z A | z G z F z G z e | %28
 f/F/G/F/ E/e/f/e/ d/F/D/B/ A/A,/G,/A,/ | B,/B/c/B/ A/A,/G,/A,/ B,/B/A/B/ ^c/^C/=B,/C/ | %30
 D/d/e/d/ ^c/^C/D/=C/ B,/B/A/B/ =c/C/F/E/ | D/d/e/g/ f/F/A/f/ d/g/f/g/ e/A/G/A/ | %32
 F/A/A/A/ A/A/A/A/ F/F/F/F/ F/F/A/A/ | G/G/G/d/ d/d/d/d/ d/d/B/B/ A/A/e/^c/ | %34
 A/f/f/f/ e/e/e/e/ d/d/d/d/ a/a/a/a/ | b/b/b/b/ a/a/a/a/ b/b/b/b/ ^c'/^c/c/c/ | %36
 d/D/4E/4F/D/ ^C/^c/4d/4e/c/ B/B,/4=C/4D/B,/ C/A/4G/4F/E/ | %37
 D/G/4F/4E/G/ F/D/4E/4F/A/ G/B/4A/4G/F/ E/A/4G/4F/E/ | %38
 F/d/4^c/4d/F/ A/A/4=B/4c/A/ F/d/4e/4f/d/ f/f/4e/4d/=c/ | %39
 B/B/4A/4B/^c/ d/f/4e/4d/f/ g/d/4=c/4B/B/ A/E/A/A/ | A3 A D3 A | G2 A2 GD D>^C | Dd ^c2 B2 A2 | %43
 D>E F2 B2 E>E | F>f f/g/f/e/ d>d d/_e/d/c/ | B2 d2 d/c/B/c/ A>A | A>a a/b/a/g/ f>f f/g/f/_e/ | %47
 d/c/B/c/ A>A Gd ^c>c | d d2 c2 B2 A- | A G2 F- F>E E2 | F f2 e d d'2 c' | b2 d'a b2 a2 | %52
 a2 A>G F2 f>e | d3 d d2 ^c2 | dD^C^c BB,A,A | GgfF EBEe | f2 z2 z4 |] %57
V:3
 z8 | z8 | z8 | z8 | z8 | z8 | f2 e2 d2 c2 | B2 A2 B2 ^c2 | d2 ^c2 B2 A2 | G2 F2 G2 E2 | %10
 DFAG FDFE | DB,DA GBAG | FDE^c dfaA | BGAF Dd d>^c | d/^c/d/D/ ^C/A/E/F/ D/d/=c/B/ A/f/a/b/ | %15
 g/f/e/g/ f/e/d/c/ B/A/G/F/ E/G/F/E/ | D/E/F/G/ A/E/A/G/ F/B/A/G/ A/G/F/E/ | %17
 D/B,/B/c/ d/c/B/A/ G/F/E/B/ A/B/A/G/ | Ff e2 z d f2 | b2 a2 b2 ^c'2 | d'd ^c2 z B d2 | d3 d dgea | %22
 a/f/4g/4a/f/4g/4 a/4A/4=B/4^c/4d/4e/4f/4g/4 f/d/4e/4f/F/4G/4 A/4_B/4A/4G/4A/4F/4G/4A/4 | %23
 G/B/4A/4G/F/4E/4 F/4E/4D/4E/4F/4G/4A/4B/4 G/B/4A/4B/^c/4d/4 A/4=B/4c/4d/4e/4f/4g/4a/4 | %24
 f/d/4e/4f/e/4d/4 e/4^c/4d/4e/4f/4e/4d/4=c/4 d/B/4c/4d/D/4E/4 F/4G/4F/4E/4F/4d/4^c/4d/4 | %25
 B/d/4c/4B/A/4G/4 A/4G/4F/4G/4A/4=B/4^c/4d/4 _B/d/4c/4d/c/4=B/4 c/4d/4e/4d/4c/4d/4B/4c/4 | %26
 d z ^c z B z d z | D z D z D z E z | z A z A z F z A | z G z F z G z e | %30
 f/F/G/F/ E/e/f/e/ d/F/D/B/ A/A,/G,/A,/ | B,/B/c/B/ A/A,/G,/A,/ B,/B/A/B/ ^c/^C/=B,/C/ | %32
 D/d/e/d/ ^c/^C/D/=C/ B,/B/A/B/ =c/C/F/E/ | D/d/e/g/ f/F/A/f/ d/g/f/g/ e/A/G/A/ | %34
 F/A/A/A/ A/A/A/A/ F/F/F/F/ F/F/A/A/ | G/G/G/d/ d/d/d/d/ d/d/B/B/ A/A/e/^c/ | %36
 A/f/f/f/ e/e/e/e/ d/d/d/d/ a/a/a/a/ | b/b/b/b/ a/a/a/a/ b/b/b/b/ ^c'/^c/c/c/ | %38
 d/D/4E/4F/D/ ^C/^c/4d/4e/c/ B/B,/4=C/4D/B,/ C/A/4G/4F/E/ | %39
 D/G/4F/4E/G/ F/D/4E/4F/A/ G/B/4A/4G/F/ E/A/4G/4F/E/ | %40
 F/d/4^c/4d/F/ A/A/4=B/4c/A/ F/d/4e/4f/d/ f/f/4e/4d/=c/ | %41
 B/B/4A/4B/^c/ d/f/4e/4d/f/ g/d/4=c/4B/B/ A/E/A/A/ | A3 A D3 A | G2 A2 GD D>^C | Dd ^c2 B2 A2 | %45
 D>E F2 B2 E>E | F>f f/g/f/e/ d>d d/_e/d/c/ | B2 d2 d/c/B/c/ A>A | A>a a/b/a/g/ f>f f/g/f/_e/ | %49
 d/c/B/c/ A>A Gd ^c>c | d d2 c2 B2 A- | A G2 F- F>E E2 | F f2 e d d'2 c' | b2 d'a b2 a2 | %54
 a2 A>G F2 f>e | d3 d d2 ^c2 | d2 z2 z4 |] %57
V:4
 D,2 A,,2 B,,2 F,,2 | G,,2 D,,2 G,,2 A,,2 | D,2 A,,2 B,,2 F,,2 | G,,2 D,,2 G,,2 A,,2 | %4
 D,2 A,,2 B,,2 F,,2 | G,,2 D,,2 G,,2 A,,2 | D,2 A,,2 B,,2 F,,2 | G,,2 D,,2 G,,2 A,,2 | %8
 D,2 A,,2 B,,2 F,,2 | G,,2 D,,2 G,,2 A,,2 | D,2 A,,2 B,,2 F,,2 | G,,2 D,,2 G,,2 A,,2 | %12
 D,2 A,,2 B,,2 F,,2 | G,,2 D,,2 G,,2 A,,2 | D,2 A,,2 B,,2 F,,2 | G,,2 D,,2 G,,2 A,,2 | %16
 D,2 A,,2 B,,2 F,,2 | G,,2 D,,2 G,,2 A,,2 | D,2 A,,2 B,,2 F,,2 | G,,2 D,,2 G,,2 A,,2 | %20
 D,2 A,,2 B,,2 F,,2 | G,,2 D,,2 G,,2 A,,2 | D,2 A,,2 B,,2 F,,2 | G,,2 D,,2 G,,2 A,,2 | %24
 D,2 A,,2 B,,2 F,,2 | G,,2 D,,2 G,,2 A,,2 | D,2 A,,2 B,,2 F,,2 | G,,2 D,,2 G,,2 A,,2 | %28
 D,2 A,,2 B,,2 F,,2 | G,,2 D,,2 G,,2 A,,2 | D,2 A,,2 B,,2 F,,2 | G,,2 D,,2 G,,2 A,,2 | %32
 D,2 A,,2 B,,2 F,,2 | G,,2 D,,2 G,,2 A,,2 | D,2 A,,2 B,,2 F,,2 | G,,2 D,,2 G,,2 A,,2 | %36
 D,2 A,,2 B,,2 F,,2 | G,,2 D,,2 G,,2 A,,2 | D,2 A,,2 B,,2 F,,2 | G,,2 D,,2 G,,2 A,,2 | %40
 D,2 A,,2 B,,2 F,,2 | G,,2 D,,2 G,,2 A,,2 | D,2 A,,2 B,,2 F,,2 | G,,2 D,,2 G,,2 A,,2 | %44
 D,2 A,,2 B,,2 F,,2 | G,,2 D,,2 G,,2 A,,2 | D,2 A,,2 B,,2 F,,2 | G,,2 D,,2 G,,2 A,,2 | %48
 D,2 A,,2 B,,2 F,,2 | G,,2 D,,2 G,,2 A,,2 | D,2 A,,2 B,,2 F,,2 | G,,2 D,,2 G,,2 A,,2 | %52
 D,2 A,,2 B,,2 F,,2 | G,,2 D,,2 G,,2 A,,2 | D,2 A,,2 B,,2 F,,2 | G,,2 D,,2 G,,2 A,,2 | %56
 D,,2 z2 z4 |] %57

